images/krestpers.svg

<svg aria-hidden="true" style="position: absolute; width: 0; height: 0; overflow: hidden;" version="1.1" xmlns="http://www.w3.org/2000/svg" xmlns:xlink="http://www.w3.org/1999/xlink">
<defs>
<symbol id="icon-person" viewBox="0 0 32 32">
<path d="M16 16c2.947 0 5.333-2.387 5.333-5.333s-2.387-5.333-5.333-5.333c-2.947 0-5.333 2.387-5.333 5.333s2.387 5.333 5.333 5.333zM16 18.667c-3.56 0-10.667 1.787-10.667 5.333v1.333c0 0.733 0.6 1.333 1.333 1.333h18.667c0.733 0 1.333-0.6 1.333-1.333v-1.333c0-3.547-7.107-5.333-10.667-5.333z"></path>
</symbol>
<symbol id="icon-close" viewBox="0 0 32 32">
<path fill="#e7e9fc" style="fill: var(--color1, #e7e9fc)" d="M32 16c0 8.837-7.163 16-16 16s-16-7.163-16-16c0-8.837 7.163-16 16-16s16 7.163 16 16z"></path>
<path fill="none" stroke="#000" style="stroke: var(--color2, #000)" stroke-linejoin="miter" stroke-linecap="butt" stroke-miterlimit="4" stroke-width="1.3333" d="M31.333 16c0 8.468-6.865 15.333-15.333 15.333s-15.333-6.865-15.333-15.333c0-8.468 6.865-15.333 15.333-15.333s15.333 6.865 15.333 15.333z"></path>
<path fill="#2e2f42" style="fill: var(--color3, #2e2f42)" d="M21.333 11.741l-1.074-1.074-4.259 4.259-4.259-4.259-1.074 1.074 4.259 4.259-4.259 4.259 1.074 1.074 4.259-4.259 4.259 4.259 1.074-1.074-4.259-4.259 4.259-4.259z"></path>
</symbol>
</defs>
</svg>

<svg xmlns="http://www.w3.org/2000/svg" aria-hidden="true" style="position:absolute;width:0;height:0;overflow:hidden">
  <defs>
    <symbol id="icon-person" viewBox="0 0 32 32">
      <path d="M16 16c2.947 0 5.333-2.387 5.333-5.333S18.946 5.334 16 5.334c-2.947 0-5.333 2.387-5.333 5.333S13.054 16 16 16zm0 2.667c-3.56 0-10.667 1.787-10.667 5.333v1.333c0 .733.6 1.333 1.333 1.333h18.667c.733 0 1.333-.6 1.333-1.333V24c0-3.547-7.107-5.333-10.667-5.333z"/>
    </symbol>
    <symbol id="close" viewBox="0 0 32 32">
      <path fill="#e7e9fc" d="M32 16c0 8.837-7.163 16-16 16S0 24.837 0 16 7.163 0 16 0s16 7.163 16 16z" style="fill:var(--color1, #e7e9fc)"/>
      <path fill="none" stroke="#000" stroke-width="1.333" d="M31.333 16c0 8.468-6.865 15.333-15.333 15.333S.667 24.468.667 16 7.532.667 16 .667 31.333 7.532 31.333 16z" style="stroke:var(--color2, #000)"/>
      <path fill="#2e2f42" d="m21.333 11.741-1.074-1.074L16 14.926l-4.259-4.259-1.074 1.074L14.926 16l-4.259 4.259 1.074 1.074L16 17.074l4.259 4.259 1.074-1.074L17.074 16l4.259-4.259z" style="fill:var(--color3, #2e2f42)"/>
    </symbol>
  </defs>
</svg>
